symbols/web/wifi_calling/materialsymbolsoutlined/wifi_calling_wght700grad200_48px.svg

<svg xmlns="http://www.w3.org/2000/svg" height="48" width="48"><path d="M35.2 20.05 24.5 9.3q2.3-1.75 4.875-2.8Q31.95 5.45 35.2 5.45t5.875 1.025Q43.7 7.5 46 9.25Zm0-4.8 5.3-5.3q-1.3-.55-2.625-.825Q36.55 8.85 35.2 8.85q-1.4 0-2.675.3T29.9 9.9Zm4.4 27.7q-6.25 0-12.45-3.075-6.2-3.075-11.125-7.975-4.925-4.9-8-11.15T4.95 8.4q0-1.45 1-2.475Q6.95 4.9 8.4 4.9h6.75q1.55 0 2.55.8 1 .8 1.3 2.35l1.35 5.3q.2 1.4-.1 2.375-.3.975-1.1 1.675L14 22.1q2.5 3.95 5.45 6.825T26 33.85l4.95-4.95q.85-.9 1.9-1.25 1.05-.35 2.35-.05l4.7 1.15q1.55.4 2.35 1.425t.8 2.525v6.75q0 1.5-1 2.5t-2.45 1ZM11.7 18.1l4.05-3.8-1.05-4.85H9.5q-.05 1.7.475 3.8.525 2.1 1.725 4.85Zm26.75 20.25v-.025.025-5.2l-4.4-.95-3.9 4.05q1.8.9 3.975 1.425t4.325.675Zm-8.3-2.1ZM11.7 18.1Zm23.5-2.85Z"/></svg>

<svg xmlns="http://www.w3.org/2000/svg" height="48" width="48"><path d="M35.2 20.05 24.5 9.3Q26.8 7.55 29.375 6.5Q31.95 5.45 35.2 5.45Q38.45 5.45 41.075 6.475Q43.7 7.5 46 9.25ZM35.2 15.25 40.5 9.95Q39.2 9.4 37.875 9.125Q36.55 8.85 35.2 8.85Q33.8 8.85 32.525 9.15Q31.25 9.45 29.9 9.9ZM39.6 42.95Q33.35 42.95 27.15 39.875Q20.95 36.8 16.025 31.9Q11.1 27 8.025 20.75Q4.95 14.5 4.95 8.4Q4.95 6.95 5.95 5.925Q6.95 4.9 8.4 4.9H15.15Q16.7 4.9 17.7 5.7Q18.7 6.5 19 8.05L20.35 13.35Q20.55 14.75 20.25 15.725Q19.95 16.7 19.15 17.4L14 22.1Q16.5 26.05 19.45 28.925Q22.4 31.8 26 33.85L30.95 28.9Q31.8 28 32.85 27.65Q33.9 27.3 35.2 27.6L39.9 28.75Q41.45 29.15 42.25 30.175Q43.05 31.2 43.05 32.7V39.45Q43.05 40.95 42.05 41.95Q41.05 42.95 39.6 42.95ZM11.7 18.1 15.75 14.3Q15.75 14.3 15.75 14.3Q15.75 14.3 15.75 14.3L14.7 9.45Q14.7 9.45 14.7 9.45Q14.7 9.45 14.7 9.45H9.5Q9.5 9.45 9.5 9.45Q9.5 9.45 9.5 9.45Q9.45 11.15 9.975 13.25Q10.5 15.35 11.7 18.1ZM38.45 38.35Q38.45 38.3 38.45 38.325Q38.45 38.35 38.45 38.35V33.15Q38.45 33.15 38.45 33.15Q38.45 33.15 38.45 33.15L34.05 32.2Q34.05 32.2 34.05 32.2Q34.05 32.2 34.05 32.2L30.15 36.25Q31.95 37.15 34.125 37.675Q36.3 38.2 38.45 38.35ZM30.15 36.25Q30.15 36.25 30.15 36.25Q30.15 36.25 30.15 36.25Q30.15 36.25 30.15 36.25Q30.15 36.25 30.15 36.25Q30.15 36.25 30.15 36.25Q30.15 36.25 30.15 36.25Q30.15 36.25 30.15 36.25Q30.15 36.25 30.15 36.25ZM11.7 18.1Q11.7 18.1 11.7 18.1Q11.7 18.1 11.7 18.1Q11.7 18.1 11.7 18.1Q11.7 18.1 11.7 18.1Q11.7 18.1 11.7 18.1Q11.7 18.1 11.7 18.1Q11.7 18.1 11.7 18.1Q11.7 18.1 11.7 18.1ZM35.2 15.25Q35.2 15.25 35.2 15.25Q35.2 15.25 35.2 15.25Q35.2 15.25 35.2 15.25Q35.2 15.25 35.2 15.25Z"/></svg>
